X: 99
T: Elmer Briand's Favorite
T: Reel, B Dorian
C: Johnny Wilmot
L: 1/16
M: C|
K: B Dorian
|: f2B2 BBB2 B2A2F2B2| A2F2E2F2 A2B2c2e2| f2B2 BBB2 B2A2F2A2| B2f2e2c2 B4 c2e2 :|
|: f4 f2a2 f2e2d2f2|e2c2 ccc2 A2c2 ccc2| [1 f4 f2a2 f2e2d2f2|e2c2A2c2 B4 c2e2 :| 
[2 f2e2d2f2 =g2f2e2f2| a2f2e2c2 f2B2B2e2|]
D: Rodney Macdonald, Dancer's Delight, RMD1, 1995
